X:1
T:Title
%%score { 1 | 2 }
L:1/8
Q:1/4=120
M:6/4
K:D
V:1 treble nm="Grand Piano"
V:2 bass 
V:1
 F4 F2 G4 G2 | A4 A2 B2 d4 | A4 A2 ^G4 G2 | G4 [CG]2 F6 | F4 F2 G4 G2 | A4 A2 B2 d4 | %6
w: Florence~Williams~Falconer * * *||||||
 d4 A2 A4 [A,DF]2 | [G,CE]4 [A,CF]2 .[F,D]6 | [Fd]4 [Fd]2 [Gd]4 [GB]2 | [FA]4 [GB]2 [FA]2 [DF]4 | %10
w: ||||
 [Fd]4 [Fd]2 [Gd]4 [GB]2 | [FA]4 [DF]2 .[CE]6 | F4 F2 G4 G2 | A4 A2 B2 d4 | d4 A2 A4 F2 | %15
w: |||||
 [CE]4 [CF]2 D6 |] %16
w: |
V:2
 [D,A,D]4 [D,A,D]2 [E,A,C]4 [E,A,C]2 | [F,A,D]4 [F,A,D]2[K:treble] [G,D]2 [G,B,G]4 | %2
 [F,A,D]4 [F,A,D]2 [=F,B,D]4 [F,B,D]2 | [E,A,C]4 [A,,A,]2 [D,A,D]6 | %4
 [D,A,D]4 [D,A,D]2 [E,A,C]4 [E,A,C]2 | [F,A,D]4 [F,A,D]2[K:treble] [G,D]2 [G,B,G]4 | %6
 [A,DF]4 [A,DF]2 [A,DF]4[K:bass] A,,2 | A,,4 A,,2 .D,6 | [D,A,]4 [D,A,]2 [D,B,]4 [D,C]2 | %9
 [D,D]4 [D,D]2 [D,D]2 [D,A,]4 | [D,A,]4 [D,A,]2 [D,B,]4 [D,C]2 | [D,D]4 [D,A,]2 .[A,,A,]6 | %12
 [D,A,D]4 [D,A,D]2 [E,A,C]4 [E,A,C]2 | [F,A,D]4 [F,=CD]2[K:treble] [G,B,D]2 [G,B,G]4 | %14
 [A,DF]4 [A,DF]2 [A,DF]4[K:bass] [A,D]2 | [A,,G,]4 [A,,A,]2 [D,F,]6 |] %16

